X: 1901
T: Uzun İnce Bir Yoldayım
C: Âşık Veysel
O: Turkey
F: http://compmusic.upf.edu/node/140
N: ussak--turku--sofyan--uzun_ince--asik_veysel
N: makam= ussak
N: form= turku
N: usul= sofyan = 4/4
M: 4/4
L: 1/16
K: C _2/4B   
Q: 1/4=72
%%MIDI tuningsystem comma53
z2^3/4fg gg3 gf2e gff2  | ^3/4f{g}e2d fee2 eddc edd2  | 
w:   |   | 
d2c/B/A dBc2 cBBA cBB2  | BAAG BAA2 A2AA AAz2  | 
w:   |   | 
z2^3/4fg gg3 gf2e gff2  | ^3/4f{g}e2d fee2 eddc edd2  | 
w:   |   | 
d2c/B/A dBc2 cBBA cBB2  | BAAG BAA2 A2AA AAA1/4G1/4A1/4B1/4c1/4d1/4e1/4^3/4f1/4  | 
w:   |   | 
d2cd d2cA cB2A BGA2  | edec d2c/B/A cB2G BAAB/c/  | 
w:  *  U zun_ in ce  *  bir  yol *  da *  yım    |  SAZ  | 
d2cd d2cA cB2A BGA2  | edec d2c/B/A cB2G BAAB/c/  | 
w:  *  U zun_ in ce  *  bir  yol *  da *  yım    |  SAZ  | 
g2^3/4fg gg3 gf2e gff2  | ^3/4f{g}e2d fee2 eddc edd2  | 
w:  *  Bil mi yo rum  ne  hal *  da *  yım    |  Gi *  di *  yo *  rum  gün *  düz  *  ge *  ce    | 
d2c/B/A dBc2 cBBA cBB2  | BAAG BAA2 A2AA AAAB/^2/4c/  | 
w:  gün düz  *  *  ge *  ce  gün *  düz  *  ge *  ce   |  gün *  düz  *  ge ce  *  vay   *  *  *  *  SAZ  | 
g2^3/4fg gg3 gf2e gff2  | ^3/4f{g}e2d fee2 eddc edd2  | 
w:  *  Bil mi yo rum  ne  hal *  da *  yım    |  Gi *  di *  yo *  rum  gün *  düz  *  ge *  ce    | 
d2c/B/A dBc2 cBBA cBB2  | BAAG BAA2 A8  | 
w:  gün düz  *  *  ge *  ce  gün *  düz  *  ge *  ce   |  gün *  düz  *  ge ce  *  vay    | 
|


